svgs/web_video_caster.svg

<svg xmlns="http://www.w3.org/2000/svg" width="192" height="192" fill="none" stroke="#000" stroke-linecap="round" stroke-width="12" viewBox="0 0 192 192"><rect width="132" height="132" x="30" y="30" ry="6"/><circle cx="122" cy="84" r="20" stroke-width="10"/><path stroke-linejoin="round" stroke-width="6" d="M119 90V78l8 6-8 6z"/><path d="M101 162v-14a57 57 0 0 0-57-57H30m49 71v-12a37 37 0 0 0-37-37H30m27 49v-12a15 15 0 0 0-15-15H30"/></svg>

<svg xmlns="http://www.w3.org/2000/svg" width="192" height="192" fill="none" stroke="#000" stroke-linecap="round" stroke-width="6" viewBox="0 0 192 192"><rect x="30" y="30" width="132" height="132" ry="6" stroke-width="12" /><circle cx="122" cy="84" r="20" stroke-width="10"/><path stroke-linejoin="round" d="M119 90V78l8 6-8 6z"/><path stroke-width="12" d="M 101 162 V 148 A 57 57 0 0 0 44 91 H 30 M 79 162 V 150 A 37 37 0 0 0 42 113 H 30 M 57 162 V 150 A 15 15 0 0 0 42 135 H 30"/></svg>
